X:66
T:B066-  The Children in the Wood
Q:1/4=120
L:1/4
M:3/4
K:F
G|A/2G/2F3/2G/2|A/2G/2F3/2A/2|B/2d/2c3/2A/2|G2A|\
B/2d/2c3/2B/2|c/2A/2F3/2c/2|d/2f/2AG|F2|]

